illustfolio3/dist/images/compare_font.svg

<svg width="40" height="40" viewBox="0 0 40 40" fill="none" xmlns="http://www.w3.org/2000/svg">
<mask id="mask0_1636_430" style="mask-type:alpha" maskUnits="userSpaceOnUse" x="0" y="0" width="40" height="40">
<rect width="40" height="40" fill="#D9D9D9"/>
</mask>
<g mask="url(#mask0_1636_430)">
<path d="M21.4446 33.3335V35.2781C21.4446 35.6714 21.311 36.0013 21.0438 36.2677C20.7765 36.5338 20.4456 36.6668 20.0508 36.6668C19.6558 36.6668 19.3264 36.5338 19.0625 36.2677C18.7986 36.0013 18.6667 35.6714 18.6667 35.2781V28.6114C18.6667 28.2178 18.8003 27.8879 19.0675 27.6218C19.3344 27.3554 19.6654 27.2222 20.0604 27.2222C20.4554 27.2222 20.7849 27.3554 21.0488 27.6218C21.3126 27.8879 21.4446 28.2178 21.4446 28.6114V30.5556H33.6112C34.0046 30.5556 34.3344 30.6892 34.6008 30.9564C34.8669 31.2236 35 31.5546 35 31.9493C35 32.3443 34.8669 32.6738 34.6008 32.9377C34.3344 33.2016 34.0046 33.3335 33.6112 33.3335H21.4446ZM6.38875 33.3335C5.99542 33.3335 5.66556 33.1999 5.39917 32.9327C5.13306 32.6657 5 32.3347 5 31.9397C5 31.5447 5.13306 31.2153 5.39917 30.9514C5.66556 30.6875 5.99542 30.5556 6.38875 30.5556H14.5279C14.926 30.5556 15.2524 30.6892 15.5071 30.9564C15.7615 31.2236 15.8888 31.5546 15.8888 31.9493C15.8888 32.3443 15.7557 32.6738 15.4896 32.9377C15.2235 33.2016 14.8936 33.3335 14.5 33.3335H6.38875ZM15.7779 18.1806H24.2638L25.7917 22.4306C25.8842 22.6956 26.0462 22.9122 26.2779 23.0806C26.5093 23.2492 26.7743 23.3335 27.0729 23.3335C27.5707 23.3335 27.9585 23.1297 28.2362 22.7222C28.514 22.315 28.5603 21.8845 28.375 21.4306L21.8196 4.22225C21.7176 3.94447 21.55 3.72697 21.3167 3.56975C21.0831 3.41225 20.8146 3.3335 20.5112 3.3335H19.4608C19.1575 3.3335 18.8892 3.41683 18.6558 3.5835C18.4222 3.75016 18.2546 3.97239 18.1529 4.25016L11.6113 21.4447C11.4351 21.8984 11.486 22.3266 11.7637 22.7293C12.0412 23.1321 12.4214 23.3335 12.9042 23.3335C13.2181 23.3335 13.4931 23.2456 13.7292 23.0697C13.9653 22.8936 14.1435 22.6667 14.2638 22.3889L15.7779 18.1806ZM16.6946 15.6947L19.9446 6.54183H20.0554L23.3054 15.6947H16.6946Z" fill="#4B4B4B"/>
</g>
</svg>

<svg width="40" height="40" fill="none" xmlns="http://www.w3.org/2000/svg"><mask id="a" style="mask-type:alpha" maskUnits="userSpaceOnUse" x="0" y="0" width="40" height="40"><path fill="#D9D9D9" d="M0 0h40v40H0z"/></mask><g mask="url(#a)"><path d="M21.445 33.334v1.944c0 .393-.134.723-.401.99-.268.266-.598.399-.993.399s-.725-.133-.988-.4a1.35 1.35 0 0 1-.396-.989v-6.667c0-.393.133-.723.4-.99.267-.266.598-.399.993-.399s.725.133.989.4c.264.266.396.596.396.99v1.944H33.61c.394 0 .723.133.99.4.266.268.399.599.399.993 0 .395-.133.725-.4.989a1.35 1.35 0 0 1-.989.395H21.445Zm-15.056 0c-.394 0-.723-.134-.99-.401A1.35 1.35 0 0 1 5 31.94c0-.395.133-.725.4-.989a1.35 1.35 0 0 1 .989-.395h8.139c.398 0 .724.133.98.4.254.268.38.599.38.993 0 .395-.132.725-.398.989a1.35 1.35 0 0 1-.99.395H6.389Zm9.389-15.153h8.486l1.528 4.25c.092.265.254.481.486.65.231.168.496.253.795.253a1.33 1.33 0 0 0 1.163-.612c.278-.407.324-.838.139-1.291L21.82 4.222a1.307 1.307 0 0 0-.503-.652 1.407 1.407 0 0 0-.806-.236h-1.05a1.35 1.35 0 0 0-.805.25 1.382 1.382 0 0 0-.503.666L11.61 21.445c-.176.453-.125.882.153 1.284.277.403.657.605 1.14.605.314 0 .59-.088.825-.264a1.65 1.65 0 0 0 .535-.681l1.514-4.208Zm.917-2.486 3.25-9.153h.11l3.25 9.153h-6.61Z" fill="#4B4B4B"/></g></svg>
